X:1
T:Title
%%score { 1 | 2 }
L:1/8
Q:1/4=100
M:4/4
K:F
V:1 treble nm="Grand Piano"
V:2 bass 
V:1
 A3 A [DG]2 D2 | E4 F2 z2 | [Cc]3 [_Ec] [B,DB]2 [DFA]2 | [B,EG]6 z2 | c3 c c2 ^c2 | d4 [B,FG]2 z2 | %6
w: Hubert~P.~Main * * *||||||
 [B,EG]2 [A,EA]2 [EB]2 [B,CE]2 | [A,CF]6 z2 |] %8
w: ||
V:2
 [F,CF]3 [F,CF] [B,,B,]2 [B,,B,]2 | [C,G,B,]4 [D,F,A,]2 z2 | [A,,F,]3 [A,,F,] B,,2 =B,,2 | C,6 z2 | %4
 [A,F]3 [A,CF] [_A,CF]2 [A,=B,F]2 | [G,B,F]4[K:bass] D,2 ^C,2 | C,2 C,2 [C,G,]2 C,2 | F,,6 z2 |] %8

